brandFactory_export/2.Regular/Sin conexion_2Regular.svg

<?xml version="1.0" encoding="UTF-8"?>
<svg width="24px" height="24px" viewBox="0 0 24 24" version="1.1" xmlns="http://www.w3.org/2000/svg" xmlns:xlink="http://www.w3.org/1999/xlink">
    <title>2.Regular/Sin conexion_2Regular</title>
    <g id="Symbols" stroke="none" stroke-width="1" fill="none" fill-rule="evenodd">
        <g id="2.Regular/Sin-conexion_2Regular" fill="#5CB615" fill-rule="nonzero">
            <path d="M20.9915966,20.9277311 C21.7915966,20.0907563 22.1882353,19.2638655 22.1747899,18.4705882 C22.1613445,17.707563 21.7613445,16.9310924 20.994958,16.1647059 C20.702521,15.8655462 20.3731092,15.6067227 20.0134454,15.3915966 C19.3680672,14.9915966 18.7260504,14.8504202 18.0941176,14.9546218 C17.4352941,15.0655462 16.7731092,15.4521008 16.1210084,16.1008403 C15.9630252,16.2588235 15.8151261,16.4235294 15.6773109,16.5983193 C15.6201681,16.6689076 15.5462185,16.7294118 15.4655462,16.7764706 C14.9747899,17.0554622 14.2857143,16.8638655 13.2907563,16.1848739 C12.2487395,15.4689076 11.0420168,14.302521 10.2285714,13.4857143 L10.1344538,13.3915966 C9.31764706,12.5747899 8.14789916,11.3714286 7.43529412,10.3294118 C6.75630252,9.33781513 6.56470588,8.6487395 6.84033613,8.15798319 C6.88403361,8.07731092 6.94453782,8.00336134 7.01848739,7.94621849 C7.22352941,7.78151261 7.34453782,7.67394958 7.51932773,7.50252101 C8.16806723,6.85378151 8.55462185,6.19159664 8.66554622,5.52941176 C8.77310924,4.89747899 8.62857143,4.25546218 8.23865546,3.62689076 C8.02689076,3.2605042 7.76470588,2.92436975 7.45882353,2.62857143 C6.68907563,1.86218487 5.91260504,1.46218487 5.14957983,1.4487395 C4.33277311,1.42857143 3.52941176,1.83193277 2.69243697,2.63193277 C2.43697479,2.8907563 2.20504202,3.1697479 1.99663866,3.46890756 C1.21344538,4.60168067 1.26386555,6.37310924 2.11092437,8.49747899 C3.05546218,10.8638655 4.90756303,13.4689076 7.46218487,16.0302521 L7.48907563,16.0537815 L7.57310924,16.1378151 C10.1411765,18.7058824 12.7529412,20.5647059 15.1260504,21.5092437 C17.2268908,22.3462185 19.0352941,22.3966387 20.1176471,21.6504202 C20.1378151,21.6302521 20.1613445,21.6134454 20.1848739,21.6 C20.3596639,21.4756303 20.7327731,21.1966387 20.9915966,20.9277311 Z M22.0168067,15.1394958 C23.0588235,16.1815126 23.6,17.2907563 23.6201681,18.4436975 C23.6436975,19.6302521 23.1092437,20.8033613 22.0369748,21.9260504 C21.6672269,22.312605 21.1697479,22.6756303 21.0084034,22.7932773 L20.9815126,22.810084 C20.9714286,22.8201681 20.9579832,22.8268908 20.9478992,22.8369748 C20.1915966,23.3579832 19.2537815,23.6235294 18.1613445,23.6235294 C17.0789916,23.6235294 15.8823529,23.3613445 14.5915966,22.8504202 C12.0369748,21.8319328 9.2605042,19.8655462 6.55462185,17.1596639 L6.48067227,17.0823529 C6.47394958,17.0789916 6.46722689,17.0689076 6.4605042,17.0621849 C3.75798319,14.3630252 1.79159664,11.5831933 0.773109244,9.02857143 C-0.258823529,6.44033613 -0.255462185,4.18487395 0.783193277,2.6789916 C0.944537815,2.45714286 1.30084034,1.95966387 1.69747899,1.58319328 C2.82016807,0.507563025 3.97647059,0.00672268908 5.17983193,0 C6.32941176,0.0201680672 7.44201681,0.561344538 8.48403361,1.60336134 C8.89411765,2.01344538 9.23361345,2.44369748 9.48571429,2.88067227 C10.0571429,3.80168067 10.2655462,4.77983193 10.097479,5.76806723 C9.93613445,6.72941176 9.41512605,7.65378151 8.54789916,8.5210084 C8.44705882,8.62184874 8.34285714,8.72268908 8.23529412,8.81680672 C8.29579832,8.95798319 8.41008403,9.17983193 8.63193277,9.5092437 C9.27731092,10.4504202 10.3865546,11.589916 11.1630252,12.3663866 L11.2571429,12.4605042 C12.0336134,13.2336134 13.1731092,14.3428571 14.1176471,14.9915966 C14.4436975,15.2134454 14.6655462,15.3277311 14.8067227,15.3882353 C14.897479,15.2840336 14.9882353,15.189916 15.1058824,15.0756303 C15.9697479,14.2117647 16.897479,13.687395 17.8588235,13.5260504 C18.8504202,13.3579832 19.8285714,13.5697479 20.7663866,14.1478992 C21.1798319,14.3932773 21.610084,14.7294118 22.0168067,15.1394958 Z M17.5462185,1.75461556 C14.5378151,1.75461556 13.1966387,3.09579832 13.1966387,6.10756303 C13.1966387,9.11596639 14.5378151,10.4571429 17.5462185,10.4571429 C20.5579832,10.4571429 21.899166,9.11596639 21.899166,6.10756303 C21.902521,3.09579832 20.5579832,1.7512605 17.5462185,1.75461556 Z M17.5462185,11.9058824 C13.8823529,11.9058824 11.7478992,10.0571429 11.7478992,6.10756303 C11.7478992,2.15462185 13.8823529,0.305882353 17.5462185,0.305882353 C21.210084,0.305882353 23.3512605,2.15798319 23.3512605,6.10756303 C23.3512605,10.0571429 21.210084,11.9058824 17.5462185,11.9058824 Z M15.0621849,8.58823529 C14.7798319,8.30588235 14.7798319,7.8487395 15.0621849,7.56638655 L16.5210084,6.10756303 L15.0621849,4.6487395 C14.7798319,4.36638655 14.7798319,3.9092437 15.0621849,3.62689076 C15.3445378,3.34453782 15.8016807,3.34453782 16.0840336,3.62689076 L17.5428571,5.08571429 L19.0084034,3.62016807 C19.2907563,3.33781513 19.7478992,3.33781513 20.0302521,3.62016807 C20.312605,3.90252101 20.312605,4.35966387 20.0302521,4.64201681 L18.5647059,6.10756303 L20.0302521,7.57310924 C20.312605,7.85546218 20.312605,8.31260504 20.0302521,8.59831933 C19.7478992,8.88067227 19.2907563,8.88067227 19.005042,8.59831933 L17.5462185,7.12941176 L16.087395,8.58823529 C15.8016807,8.87058824 15.3445378,8.87058824 15.0621849,8.58823529 Z" id="Sin-conexion_2Regular"></path>
        </g>
    </g>
</svg>

<svg width="24" height="24" viewBox="0 0 24 24" xmlns="http://www.w3.org/2000/svg"><path d="M20.992 20.928c.8-.837 1.196-1.664 1.183-2.457-.014-.763-.414-1.54-1.18-2.306a4.856 4.856 0 00-.982-.773c-.645-.4-1.287-.542-1.919-.437-.659.11-1.32.497-1.973 1.146a5.65 5.65 0 00-.444.497.776.776 0 01-.211.178c-.491.28-1.18.088-2.175-.591-1.042-.716-2.249-1.882-3.062-2.7l-.095-.093c-.816-.817-1.986-2.02-2.699-3.063-.679-.991-.87-1.68-.595-2.171a.674.674 0 01.178-.212 5.95 5.95 0 00.501-.443c.65-.65 1.036-1.311 1.147-1.974.107-.632-.037-1.274-.427-1.902a4.57 4.57 0 00-.78-.998c-.77-.767-1.546-1.167-2.31-1.18-.816-.02-1.62.383-2.457 1.183a6.384 6.384 0 00-.695.837c-.784 1.133-.733 2.904.114 5.028.944 2.367 2.797 4.972 5.351 7.533l.027.024.084.084c2.568 2.568 5.18 4.427 7.553 5.371 2.1.837 3.91.888 4.992.141a.32.32 0 01.067-.05c.175-.124.548-.403.807-.672zm1.025-5.789c1.042 1.043 1.583 2.152 1.603 3.305.024 1.186-.51 2.36-1.583 3.482-.37.387-.867.75-1.029.867l-.026.017c-.01.01-.024.017-.034.027-.756.521-1.694.787-2.787.787-1.082 0-2.279-.263-3.57-.774-2.554-1.018-5.33-2.984-8.036-5.69l-.074-.078c-.007-.003-.014-.013-.02-.02C3.758 14.363 1.79 11.583.773 9.03-.259 6.44-.255 4.185.783 2.679c.162-.222.518-.72.914-1.096C2.82.508 3.977.007 5.18 0c1.15.02 2.262.561 3.304 1.603.41.41.75.84 1.002 1.278.571.92.78 1.899.611 2.887-.16.961-.682 1.886-1.55 2.753-.1.1-.204.202-.312.296.06.141.175.363.397.692.645.941 1.755 2.08 2.531 2.857l.094.095c.777.773 1.916 1.882 2.86 2.53.327.222.549.337.69.397.09-.104.181-.198.299-.312.864-.864 1.791-1.389 2.753-1.55.991-.168 1.97.044 2.907.622.414.245.844.581 1.25.991zm-4.47-13.384c-3.01 0-4.35 1.34-4.35 4.353 0 3.008 1.34 4.35 4.35 4.35 3.011 0 4.352-1.342 4.352-4.35.004-3.012-1.341-4.357-4.353-4.353zm0 10.15c-3.665 0-5.8-1.848-5.8-5.797 0-3.953 2.135-5.802 5.8-5.802 3.663 0 5.804 1.852 5.804 5.802 0 3.95-2.14 5.798-5.805 5.798zm-2.485-3.317a.722.722 0 010-1.022l1.459-1.458-1.459-1.46a.722.722 0 111.022-1.021l1.459 1.459 1.465-1.466a.722.722 0 111.022 1.022l-1.465 1.466 1.465 1.465a.726.726 0 010 1.025.726.726 0 01-1.025 0L17.546 7.13l-1.459 1.46a.726.726 0 01-1.025 0z" fill="#5CB615" fill-rule="nonzero"/></svg>
